X:1
T:STICK IT IN THE ASHES -- REEL
B:Ryan's Mammoth Collection of Fiddle Tunes
R:reel
Z:Contributed 20000421005857 by John Chambers jcsd:world.std.com
Z:Contributed by Ray Davies, ray:davies99.freeserve.co.uk
M:2/4
L:1/16
K:A
uA2 |\
EAAB cBcd | ecdB cAEA | EAAB cBcd | ecAc .B2.A2 |
EAAB cBcd | ecdB cAEA | EAAB cBcd | ecBc A2 :|
|: u((3efg) |\
.a2(ca) (ea)(ca) | dBcA (BF).F2 | .a2(ea) e"1"aa"3"c' | "2"b"1"ab"3"c' "1"a2a2 |
"1"a"3"c'"1"fa eace | dBcA (BF).F2 | (EA)(AB) cBcd | ecBc A2 :|
